X: 1
T:the Blue Goat
R:Polska
O:Sweden
A:Dalarna 
M:3/4
K:ADor
A>B A2 B2 | c2 d2 B>G| A2 A4|\
e>f e2 f2| g2 a2 f>d| e2 e4 :|
e2 a2 e>f| e2 d/e/d/B/ c>A| c2 B4|\
A>B A2 B2 | c/B/c/e/ d2 B2| cc/e/ d2 B>G| A2 A4:|
